public/google.svg

<svg width="239" height="72" viewBox="0 0 239 72" fill="none" xmlns="http://www.w3.org/2000/svg">
<path d="M33.9453 30.1836C34.0238 24.4745 36.3647 19.0259 40.4612 15.0177C44.5576 11.0095 50.0798 8.76425 55.8319 8.76818C58.5684 8.72522 61.2858 9.22519 63.825 10.2387C66.3641 11.2522 68.6737 12.7589 70.6183 14.6703L66.4623 18.7956C63.6132 16.0664 59.7939 14.5639 55.8347 14.6149C53.7756 14.6149 51.7366 15.0175 49.8342 15.7997C47.9318 16.5819 46.2033 17.7283 44.7473 19.1735C43.2912 20.6188 42.1362 22.3345 41.3482 24.2228C40.5602 26.1112 40.1547 28.1351 40.1547 30.179C40.1547 32.2228 40.5602 34.2468 41.3482 36.1351C42.1362 38.0234 43.2912 39.7391 44.7473 41.1844C46.2033 42.6296 47.9318 43.776 49.8342 44.5582C51.7366 45.3404 53.7756 45.743 55.8347 45.743C57.8508 45.8236 59.8614 45.4839 61.7371 44.7459C63.6128 44.0078 65.3117 42.8878 66.7246 41.458C68.5993 39.4328 69.7302 36.8385 69.9339 34.0956H55.8319V28.2423H75.6671C75.8899 29.4483 75.9954 30.6726 75.9823 31.8986C75.9823 36.286 74.7734 41.7165 70.8787 45.5814C68.9433 47.5832 66.6013 49.1539 64.008 50.1892C61.4148 51.2246 58.6294 51.701 55.8366 51.587C50.0843 51.5911 44.5619 49.346 40.4652 45.3377C36.3686 41.3295 34.0275 35.8808 33.949 30.1716" fill="#4285F4"/>
<path d="M92.0146 24.0204C89.2696 24.0305 86.5891 24.8476 84.3116 26.3687C82.0341 27.8898 80.2618 30.0465 79.2184 32.5667C78.175 35.0869 77.9072 37.8574 78.449 40.5285C78.9908 43.1996 80.3178 45.6516 82.2625 47.5746C84.2071 49.4977 86.6822 50.8056 89.3752 51.3334C92.0682 51.8612 94.8584 51.585 97.3935 50.5399C99.9286 49.4948 102.095 47.7275 103.619 45.4612C105.143 43.195 105.956 40.5313 105.956 37.8066C105.982 36.0217 105.654 34.2492 104.99 32.5902C104.326 30.9313 103.339 29.4184 102.086 28.1381C100.833 26.8578 99.3376 25.835 97.6862 25.1284C96.0347 24.4217 94.2591 24.0449 92.4609 24.0195H92.0062M92.0062 46.1623C90.3414 46.2793 88.6791 45.9037 87.2294 45.0831C85.7797 44.2625 84.6077 43.0336 83.8614 41.5519C83.1152 40.0702 82.8283 38.4022 83.0371 36.7587C83.2458 35.1151 83.9407 33.5699 85.0341 32.3184C86.1274 31.0668 87.57 30.1651 89.1795 29.7273C90.789 29.2894 92.4932 29.3351 94.0766 29.8585C95.66 30.3818 97.0515 31.3595 98.0753 32.6677C99.099 33.976 99.709 35.5561 99.8281 37.2084C99.8429 37.406 99.8495 37.6017 99.8495 37.7983C99.9523 39.9113 99.2055 41.9784 97.7732 43.545C96.3409 45.1116 94.3404 46.0494 92.2117 46.1521L92.0099 46.1595" fill="#DB4437"/>
<path d="M122.423 24.0204C119.678 24.0308 116.998 24.8483 114.72 26.3696C112.443 27.8909 110.671 30.0478 109.628 32.568C108.585 35.0882 108.317 37.8587 108.859 40.5297C109.401 43.2007 110.729 45.6524 112.673 47.5752C114.618 49.4981 117.093 50.8059 119.786 51.3335C122.479 51.8611 125.269 51.5849 127.804 50.5397C130.339 49.4946 132.505 47.7273 134.029 45.4611C135.553 43.1948 136.366 40.5312 136.366 37.8066C136.419 34.2036 135.028 30.7271 132.5 28.1417C129.971 25.5562 126.511 24.0735 122.881 24.0195H122.427M122.427 46.1623C120.762 46.2793 119.1 45.9037 117.65 45.0831C116.2 44.2625 115.028 43.0336 114.282 41.5519C113.536 40.0702 113.249 38.4022 113.457 36.7587C113.666 35.1151 114.361 33.5699 115.454 32.3184C116.548 31.0668 117.99 30.1651 119.6 29.7273C121.209 29.2894 122.914 29.3351 124.497 29.8585C126.08 30.3818 127.472 31.3595 128.496 32.6677C129.519 33.976 130.129 35.5561 130.248 37.2084C130.263 37.4053 130.27 37.6026 130.27 37.8002C130.373 39.9132 129.626 41.9803 128.194 43.5469C126.761 45.1134 124.761 46.0512 122.632 46.154L122.431 46.1614" fill="#F4B400"/>
<path d="M159.761 24.8586V27.1044H159.551C158.623 26.1037 157.491 25.3111 156.229 24.7796C154.968 24.248 153.607 23.9898 152.238 24.0222C145.293 24.0222 138.926 30.0804 138.926 37.861C138.902 41.4216 140.28 44.8506 142.767 47.4168C145.254 49.9831 148.652 51.4835 152.238 51.5983C153.613 51.6342 154.979 51.3726 156.242 50.8318C157.505 50.2909 158.634 49.4837 159.551 48.4663H159.761V50.4518C159.761 55.7263 156.92 58.5462 152.343 58.5462C150.817 58.5096 149.337 58.0233 148.091 57.1491C146.845 56.2749 145.889 55.0524 145.346 53.6373L140.032 55.8305C141.034 58.2509 142.74 60.3193 144.934 61.7706C147.127 63.2219 149.707 63.9901 152.344 63.9767C159.504 63.9767 165.549 59.7961 165.549 49.6164V24.8586H159.761ZM152.764 46.166C151.717 46.1363 150.687 45.9023 149.731 45.4774C148.776 45.0524 147.914 44.4447 147.195 43.6891C146.476 42.9335 145.915 42.0447 145.542 41.0735C145.169 40.1024 144.993 39.0679 145.023 38.029C145.022 37.9723 145.024 37.9155 145.03 37.8592C145.03 33.0029 148.556 29.4518 152.764 29.4518C156.92 29.4518 160.182 33.0029 160.182 37.8592C160.182 42.6647 156.92 46.166 152.764 46.166Z" fill="#4285F4"/>
<path d="M175.861 10.2344H169.758V50.7602H175.861V10.2344Z" fill="#0F9D58"/>
<path d="M192.593 46.1658C191.177 46.2197 189.777 45.85 188.575 45.1045C187.374 44.359 186.426 43.2722 185.854 41.9851L204.426 34.3596L203.795 32.7904C202.637 29.7091 199.112 24.0156 191.903 24.0156C184.748 24.0156 178.804 29.6048 178.804 37.8027C178.726 41.381 180.083 44.8436 182.577 47.4287C185.071 50.0139 188.497 51.5099 192.102 51.5879H192.584C194.872 51.6003 197.128 51.0485 199.148 49.9821C201.168 48.9157 202.89 47.368 204.159 45.4781L199.424 42.3452C198.714 43.514 197.71 44.4798 196.511 45.148C195.312 45.8163 193.959 46.1641 192.584 46.1575M192.119 29.3482C193.173 29.2793 194.224 29.5199 195.141 30.04C196.058 30.56 196.8 31.3365 197.276 32.2726L184.86 37.391C184.73 35.3906 185.406 33.4208 186.739 31.9149C188.071 30.4089 189.952 29.4899 191.968 29.3602L192.119 29.3519" fill="#DB4437"/>
</svg>

<svg xmlns="http://www.w3.org/2000/svg" width="239" height="72" fill="none" viewBox="0 0 239 72"><path fill="#4285f4" d="M33.945 30.184a21.63 21.63 0 0 1 6.516-15.166 21.96 21.96 0 0 1 15.37-6.25 20.7 20.7 0 0 1 7.994 1.47 20.6 20.6 0 0 1 6.793 4.432l-4.156 4.126a15.08 15.08 0 0 0-10.627-4.181c-2.06 0-4.098.402-6 1.185a15.7 15.7 0 0 0-5.088 3.374 15.6 15.6 0 0 0-3.399 5.049 15.47 15.47 0 0 0 0 11.912 15.6 15.6 0 0 0 3.4 5.05 15.7 15.7 0 0 0 5.086 3.373 15.8 15.8 0 0 0 6 1.185c2.017.08 4.027-.26 5.903-.997a14.45 14.45 0 0 0 4.988-3.288 12.16 12.16 0 0 0 3.209-7.362H55.832v-5.854h19.835c.223 1.206.328 2.43.315 3.657 0 4.387-1.209 9.818-5.103 13.682a19.7 19.7 0 0 1-6.871 4.608 19.9 19.9 0 0 1-8.171 1.398 21.96 21.96 0 0 1-15.372-6.25 21.63 21.63 0 0 1-6.516-15.165"/><path fill="#db4437" d="M92.015 24.02c-2.745.01-5.426.828-7.703 2.349a13.8 13.8 0 0 0-5.094 6.198 13.7 13.7 0 0 0-.769 7.962 13.76 13.76 0 0 0 3.814 7.046 13.9 13.9 0 0 0 7.112 3.758c2.693.528 5.483.252 8.019-.793a13.87 13.87 0 0 0 6.225-5.079 13.7 13.7 0 0 0 2.337-7.654 13.5 13.5 0 0 0-.966-5.217 13.6 13.6 0 0 0-2.904-4.452 13.7 13.7 0 0 0-4.4-3.01 13.8 13.8 0 0 0-5.225-1.108h-.455m0 22.142a8.5 8.5 0 0 1-4.777-1.079 8.4 8.4 0 0 1-3.368-3.531 8.32 8.32 0 0 1 1.173-9.234 8.45 8.45 0 0 1 4.145-2.59 8.5 8.5 0 0 1 4.898.13 8.44 8.44 0 0 1 3.998 2.81 8.34 8.34 0 0 1 1.775 5.13 7.94 7.94 0 0 1-2.077 5.747 8.06 8.06 0 0 1-5.561 2.607l-.202.008"/><path fill="#f4b400" d="M122.423 24.02c-2.745.01-5.425.828-7.703 2.35a13.8 13.8 0 0 0-5.092 6.198 13.7 13.7 0 0 0-.769 7.962 13.76 13.76 0 0 0 3.814 7.045 13.92 13.92 0 0 0 7.113 3.758c2.693.528 5.483.252 8.018-.793a13.87 13.87 0 0 0 6.225-5.079 13.7 13.7 0 0 0 2.337-7.654 13.54 13.54 0 0 0-3.866-9.665 13.74 13.74 0 0 0-9.619-4.122h-.454m0 22.142a8.5 8.5 0 0 1-4.777-1.079 8.4 8.4 0 0 1-3.368-3.531 8.33 8.33 0 0 1 1.172-9.234 8.45 8.45 0 0 1 4.146-2.59 8.5 8.5 0 0 1 4.897.13 8.44 8.44 0 0 1 3.999 2.81 8.35 8.35 0 0 1 1.774 5.132 7.94 7.94 0 0 1-2.076 5.747 8.06 8.06 0 0 1-5.562 2.607l-.201.007"/><path fill="#4285f4" d="M159.761 24.859v2.245h-.21a9.6 9.6 0 0 0-3.322-2.324 9.7 9.7 0 0 0-3.991-.758c-6.945 0-13.312 6.058-13.312 13.839a13.6 13.6 0 0 0 3.841 9.556 13.8 13.8 0 0 0 9.471 4.181 9.5 9.5 0 0 0 4.004-.766 9.5 9.5 0 0 0 3.309-2.366h.21v1.986c0 5.274-2.841 8.094-7.418 8.094a7.73 7.73 0 0 1-4.252-1.397 7.63 7.63 0 0 1-2.745-3.512l-5.314 2.194a13.16 13.16 0 0 0 4.902 5.94 13.3 13.3 0 0 0 7.41 2.206c7.16 0 13.205-4.18 13.205-14.36V24.858zm-6.997 21.307a8 8 0 0 1-3.033-.689 8 8 0 0 1-2.536-1.788 7.9 7.9 0 0 1-1.653-2.615 7.9 7.9 0 0 1-.512-3.215c0-4.856 3.526-8.407 7.734-8.407 4.156 0 7.418 3.55 7.418 8.407 0 4.806-3.262 8.307-7.418 8.307"/><path fill="#0f9d58" d="M175.861 10.234h-6.103V50.76h6.103z"/><path fill="#db4437" d="M192.593 46.166a7.1 7.1 0 0 1-4.018-1.061 7.04 7.04 0 0 1-2.721-3.12l18.572-7.625-.631-1.57c-1.158-3.08-4.683-8.774-11.892-8.774-7.155 0-13.099 5.589-13.099 13.787a13.44 13.44 0 0 0 3.773 9.626 13.65 13.65 0 0 0 9.525 4.159h.482c2.288.012 4.544-.54 6.564-1.606a13.8 13.8 0 0 0 5.011-4.504l-4.735-3.133a7.9 7.9 0 0 1-2.913 2.803 8 8 0 0 1-3.927 1.01m-.465-16.81a5.4 5.4 0 0 1 3.022.692 5.36 5.36 0 0 1 2.135 2.233L184.86 37.39c-.13-2 .546-3.97 1.879-5.476a7.63 7.63 0 0 1 5.229-2.555l.151-.008"/></svg>
